symbols/web/difference/materialsymbolsoutlined/difference_wght600fill1_40px.svg

<svg xmlns="http://www.w3.org/2000/svg" height="40" width="40"><path d="M21.25 18.458H24V15h3.458v-2.75H24V8.792h-2.75v3.458h-3.458V15h3.458Zm-3.458 5.667h9.666v-2.792h-9.666ZM12.75 32.5q-1.542 0-2.625-1.083-1.083-1.084-1.083-2.625V4.75q0-1.542 1.083-2.625t2.625-1.083H26L36.167 11.25v17.542q0 1.541-1.084 2.625Q34 32.5 32.5 32.5Zm-6.5 6.458q-1.5 0-2.583-1.083-1.084-1.083-1.084-2.625V10.542H6.25V35.25h20.125v3.708Z"/></svg>

<svg xmlns="http://www.w3.org/2000/svg" height="40" width="40"><path d="M21.25 18.458H24V15H27.458V12.25H24V8.792H21.25V12.25H17.792V15H21.25ZM17.792 24.125H27.458V21.333H17.792ZM12.75 32.5Q11.208 32.5 10.125 31.417Q9.042 30.333 9.042 28.792V4.75Q9.042 3.208 10.125 2.125Q11.208 1.042 12.75 1.042H26L36.167 11.25V28.792Q36.167 30.333 35.083 31.417Q34 32.5 32.5 32.5ZM6.25 38.958Q4.75 38.958 3.667 37.875Q2.583 36.792 2.583 35.25V10.542H6.25V35.25Q6.25 35.25 6.25 35.25Q6.25 35.25 6.25 35.25H26.375V38.958Z"/></svg>
